src/sources/forus-platform/resources/_platform-common/assets/img/features/icons/reimbursements/icon-3.svg

<svg width="59" height="58" viewBox="0 0 59 58" fill="none" xmlns="http://www.w3.org/2000/svg">
    <rect x="0.5" width="58" height="58" rx="8" fill="#F7F9FC"/>
    <path fill-rule="evenodd" clip-rule="evenodd" d="M25.7472 15.7039L19.385 22.0661C18.7488 22.7023 17.7945 22.7023 17.1583 22.0661L13.9772 18.885C13.3409 18.2488 13.3409 17.2945 13.9772 16.6583C14.6134 16.022 15.5677 16.022 16.2039 16.6583L18.4307 18.726L23.6795 13.4772C24.3157 12.8409 25.27 12.8409 25.9063 13.4772C26.3834 14.1134 26.3834 15.0677 25.7472 15.7039ZM25.7472 26.8379L19.385 33.2001C18.7488 33.8363 17.7945 33.8363 17.1583 33.2001L13.9772 30.019C13.3409 29.3828 13.3409 28.4284 13.9772 27.7922C14.6134 27.156 15.5677 27.156 16.2039 27.7922L18.4307 29.8599L23.6795 24.6111C24.3157 23.9749 25.27 23.9749 25.9063 24.6111C26.3834 25.2473 26.3834 26.2017 25.7472 26.8379ZM17.1583 44.334C17.7945 44.9702 18.7488 44.9702 19.385 44.334L25.7472 37.9718C26.3834 37.3356 26.3834 36.3813 25.9063 35.7451C25.27 35.1089 24.3157 35.1089 23.6795 35.7451L18.4307 40.9939L16.2039 38.9262C15.5677 38.2899 14.6134 38.2899 13.9772 38.9262C13.3409 39.5624 13.3409 40.5167 13.9772 41.1529L17.1583 44.334Z" fill="#2E3242"/>
    <path fill-rule="evenodd" clip-rule="evenodd" d="M43.562 19.3623H31.792C30.8376 19.5213 30.0424 19.0442 29.8833 18.0899C29.5652 17.1355 30.0424 16.3403 30.9967 16.1812H31.6329H43.4029C44.3573 16.0221 45.1525 16.4993 45.3116 17.4536C45.4706 18.408 45.1525 19.0442 44.1982 19.3623H43.562ZM43.562 30.4953H31.792C30.8376 30.6543 30.0424 30.1772 29.8833 29.2228C29.5652 28.2685 30.0424 27.4732 30.9967 27.3142H31.6329H43.4029C44.3573 27.1551 45.1525 27.6323 45.3116 28.5866C45.4706 29.5409 44.9935 30.3362 44.0392 30.4953H43.562ZM31.7918 41.63H43.5619H44.1981C45.1524 41.4709 45.6296 40.6756 45.4705 39.7213C45.3115 38.767 44.5162 38.2898 43.5619 38.4489H31.7918H31.1556C30.2013 38.6079 29.7241 39.4032 29.8832 40.3575C30.0422 41.3119 30.8375 41.789 31.7918 41.63Z" fill="#305DFC"/>
</svg>

<svg width="59" height="58" fill="none" xmlns="http://www.w3.org/2000/svg"><rect x=".5" width="58" height="58" rx="8" fill="#F7F9FC"/><path fill-rule="evenodd" clip-rule="evenodd" d="m25.747 15.704-6.362 6.362c-.636.636-1.59.636-2.227 0l-3.18-3.181c-.637-.636-.637-1.59 0-2.227.635-.636 1.59-.636 2.226 0l2.227 2.068 5.248-5.249c.637-.636 1.591-.636 2.227 0 .477.636.477 1.59-.159 2.227Zm0 11.134L19.385 33.2c-.636.636-1.59.636-2.227 0l-3.18-3.181c-.637-.636-.637-1.59 0-2.227.635-.636 1.59-.636 2.226 0l2.227 2.068 5.248-5.249c.637-.636 1.591-.636 2.227 0 .477.636.477 1.59-.159 2.227Zm-8.589 17.496c.636.636 1.59.636 2.227 0l6.362-6.362c.636-.636.636-1.59.16-2.227-.637-.636-1.591-.636-2.227 0l-5.25 5.249-2.226-2.068c-.636-.636-1.59-.636-2.227 0-.636.636-.636 1.59 0 2.227l3.181 3.181Z" fill="#2E3242"/><path fill-rule="evenodd" clip-rule="evenodd" d="M43.562 19.362h-11.77c-.954.16-1.75-.318-1.909-1.272-.318-.954.16-1.75 1.114-1.909H43.403c.954-.159 1.75.318 1.909 1.273.159.954-.16 1.59-1.114 1.908h-.636Zm0 11.133h-11.77c-.954.16-1.75-.318-1.909-1.272-.318-.954.16-1.75 1.114-1.909H43.403c.954-.159 1.75.318 1.909 1.273.159.954-.319 1.75-1.273 1.908h-.477ZM31.792 41.63H44.198c.954-.16 1.432-.954 1.273-1.909-.16-.954-.955-1.431-1.91-1.272H31.157c-.955.159-1.432.954-1.273 1.909.16.954.954 1.431 1.909 1.272Z" fill="#305DFC"/></svg>
